X: 13
T: Il Conto Dell'Orco
P: (AABB)x2 Cx2 or 3
K: C major
M: 4/4
L: 1/8
P: A
 EF | "C"G2"F"A2 "C"G2EF | "C"G2"F"A2 "C"G2EF | "C"GEFG "F"A3/G/FE | "G"DCCD "C"E2 :: 
P: B
cd | "C"e2"F"f2 "C"e2cd | "C"e2"F"f2 "C"e2cd | \
"C"ecde "F"f3/e/dc | "G"BAAB "^Repeat AABB!""C"c2 :: 
P: C
EF | "C"G2"F"A2 "C"G2EF | "C"G2"F"A2 "C"G2EF | "C"GEFG "F"A3/G/FE | "G"DCCD "C"E2 :| 

